svg/chef_hat.svg

<svg xmlns="http://www.w3.org/2000/svg" viewBox="0 0 24 24"><path d="M12.5 1.5c-1.77 0-3.33 1.17-3.83 2.87C8.14 4.13 7.58 4 7 4a4 4 0 0 0-4 4 4.01 4.01 0 0 0 3 3.87V19h13v-7.13c1.76-.46 3-2.05 3-3.87a4 4 0 0 0-4-4c-.58 0-1.14.13-1.67.37-.5-1.7-2.06-2.87-3.83-2.87m-.5 9h1v7h-1zm-3 2h1v5H9zm6 0h1v5h-1zM6 20v1a1 1 0 0 0 1 1h11a1 1 0 0 0 1-1v-1z"/></svg>

<?xml version="1.0" encoding="UTF-8"?><!DOCTYPE svg PUBLIC "-//W3C//DTD SVG 1.1//EN" "http://www.w3.org/Graphics/SVG/1.1/DTD/svg11.dtd"><svg xmlns="http://www.w3.org/2000/svg" xmlns:xlink="http://www.w3.org/1999/xlink" version="1.1" id="mdi-chef-hat" width="24" height="24" viewBox="0 0 24 24"><path d="M12.5,1.5C10.73,1.5 9.17,2.67 8.67,4.37C8.14,4.13 7.58,4 7,4A4,4 0 0,0 3,8C3,9.82 4.24,11.41 6,11.87V19H19V11.87C20.76,11.41 22,9.82 22,8A4,4 0 0,0 18,4C17.42,4 16.86,4.13 16.33,4.37C15.83,2.67 14.27,1.5 12.5,1.5M12,10.5H13V17.5H12V10.5M9,12.5H10V17.5H9V12.5M15,12.5H16V17.5H15V12.5M6,20V21A1,1 0 0,0 7,22H18A1,1 0 0,0 19,21V20H6Z" /></svg>
